X:37
T:Coleman's Cross
R:jig
D:Bothy Band 1975
Z:id:hn-jig-37
M:6/8
K:Edor
~B3 efe|BAB efe|Add dcd|fdd edA|~B3 efe|~B3 g2a|bag agf|1 gfe fed:|2 gfe def||
|:gdB ~G3|~F3 AFD|GBd efg|fed def|gdB ~G3|~F3 AFD|GBd efg|1 fed def:|2 fed d2A||
<end>
<start>
